dist/svgs/unicons/line/backpack.svg

<svg xmlns="http://www.w3.org/2000/svg" data-name="Layer 1" viewBox="0 0 24 24"><path d="M13 10h-2a1 1 0 000 2h2a1 1 0 000-2zm5 0a4 4 0 00-3-3.86V5a3 3 0 00-6 0v1.14A4 4 0 006 10a4 4 0 00-4 4v3a3 3 0 003 3h1.18A3 3 0 009 22h6a3 3 0 002.82-2H19a3 3 0 003-3v-3a4 4 0 00-4-4zM6 18H5a1 1 0 01-1-1v-3a2 2 0 012-2zm5-13a1 1 0 012 0v1h-2zm5 14a1 1 0 01-1 1H9a1 1 0 01-1-1v-1a2 2 0 012-2h4a2 2 0 012 2zm0-4.44a3.91 3.91 0 00-2-.56h-4a3.91 3.91 0 00-2 .56V10a2 2 0 012-2h4a2 2 0 012 2zM20 17a1 1 0 01-1 1h-1v-6a2 2 0 012 2z"/></svg>

<svg xmlns="http://www.w3.org/2000/svg" data-name="Layer 1" viewBox="0 0 24 24"><path d="M13,10H11a1,1,0,0,0,0,2h2a1,1,0,0,0,0-2Zm5,0a4,4,0,0,0-3-3.86V5A3,3,0,0,0,9,5V6.14A4,4,0,0,0,6,10a4,4,0,0,0-4,4v3a3,3,0,0,0,3,3H6.18A3,3,0,0,0,9,22h6a3,3,0,0,0,2.82-2H19a3,3,0,0,0,3-3V14A4,4,0,0,0,18,10ZM6,18H5a1,1,0,0,1-1-1V14a2,2,0,0,1,2-2ZM11,5a1,1,0,0,1,2,0V6H11Zm5,14a1,1,0,0,1-1,1H9a1,1,0,0,1-1-1V18a2,2,0,0,1,2-2h4a2,2,0,0,1,2,2Zm0-4.44A3.91,3.91,0,0,0,14,14H10a3.91,3.91,0,0,0-2,.56V10a2,2,0,0,1,2-2h4a2,2,0,0,1,2,2ZM20,17a1,1,0,0,1-1,1H18V12a2,2,0,0,1,2,2Z"/></svg>
